X: 21055
M: 6/8
L: 1/8
K: Bb
V: 1 name="5"
f |\
(fB)B (ba)g | fBB BAB | cFF edc | ^cdB B3 |\
(fB)B bag | fBB BAB | cFF edc | B3 "^D.C."B2 |]
(.=B2.c) (.d2.c) | g2f b2B | d2c e2A | B2d F2B |\
=B2c d2c | g2f b2B | g2f e2c | B3- "^D.C."B2 |]
f2e c2d | c3 cde | d2c cBA | B3- "^D.C."B2 |]


